icons/misc/image_text-monochrome.svg

<?xml version="1.0" encoding="UTF-8"?><svg id="Ebene_2" xmlns="http://www.w3.org/2000/svg" viewBox="0 0 12 15"><defs><style>.cls-1{fill:#5281a9;}</style></defs><g id="Ebene_1-2"><g id="Ebene_2-2"><g id="Icons"><path class="cls-1" d="M4.17,10.14h1.83l-.9-2.54-.93,2.54ZM0,0V15H12V0H0ZM7.08,12.85l-.59-1.55H3.75l-.57,1.55H1.71l2.67-6.85h1.47l2.74,6.85h-1.51Zm2.92-5.85h-2v-2h2v2Zm0-3h-2V2h2v2Z"/></g></g></g></svg>

<svg xmlns="http://www.w3.org/2000/svg" viewBox="0 0 12 15"><path d="M4.17 10.14H6L5.1 7.6l-.93 2.54ZM0 0v15h12V0H0Zm7.08 12.85-.59-1.55H3.75l-.57 1.55H1.71L4.38 6h1.47l2.74 6.85H7.08ZM10 7H8V5h2v2Zm0-3H8V2h2v2Z" style="fill:#5281a9"/></svg>
